svg/cookie_edit.svg

<svg xmlns="http://www.w3.org/2000/svg" viewBox="0 0 24 24"><path d="M15.1 15.03c-.06-.17-.1-.34-.1-.53 0-.83.67-1.5 1.5-1.5.19 0 .36.04.53.1l2.36-2.36c.3-.3.66-.5 1.05-.62C20.21 10 20 10 20 10h-2V9c0-1-1-1-1-1h-2V7c0-1-1-1-1-1h-1V4c0-1-1-1-1-1a9 9 0 0 0-9 9c0 4.63 3.5 8.44 8 8.94v-1.81l.14-.13H11c-.83 0-1.5-.67-1.5-1.5S10.17 16 11 16s1.5.67 1.5 1.5v.14zM6.5 13c-.83 0-1.5-.67-1.5-1.5S5.67 10 6.5 10s1.5.67 1.5 1.5S7.33 13 6.5 13m3-4C8.67 9 8 8.33 8 7.5S8.67 6 9.5 6s1.5.67 1.5 1.5S10.33 9 9.5 9m2 5c-.83 0-1.5-.67-1.5-1.5s.67-1.5 1.5-1.5 1.5.67 1.5 1.5-.67 1.5-1.5 1.5m11.35.19-.98.98-2.04-2.04.98-.98c.19-.2.52-.2.72 0l1.32 1.32c.2.2.2.53 0 .72m-3.72-.36 2.04 2.04L15.04 22H13v-2.04z"/></svg>

<?xml version="1.0" encoding="UTF-8"?><!DOCTYPE svg PUBLIC "-//W3C//DTD SVG 1.1//EN" "http://www.w3.org/Graphics/SVG/1.1/DTD/svg11.dtd"><svg xmlns="http://www.w3.org/2000/svg" xmlns:xlink="http://www.w3.org/1999/xlink" version="1.1" id="mdi-cookie-edit" width="24" height="24" viewBox="0 0 24 24"><path d="M15.1 15.03C15.04 14.86 15 14.69 15 14.5C15 13.67 15.67 13 16.5 13C16.69 13 16.86 13.04 17.03 13.1L19.39 10.74C19.69 10.44 20.05 10.24 20.44 10.12C20.21 10 20 10 20 10H18V9C18 8 17 8 17 8H15V7C15 6 14 6 14 6H13V4C13 3 12 3 12 3C7.03 3 3 7.03 3 12C3 16.63 6.5 20.44 11 20.94V19.13L11.14 19C11.1 19 11.05 19 11 19C10.17 19 9.5 18.33 9.5 17.5S10.17 16 11 16 12.5 16.67 12.5 17.5C12.5 17.55 12.5 17.6 12.5 17.64L15.1 15.03M6.5 13C5.67 13 5 12.33 5 11.5S5.67 10 6.5 10 8 10.67 8 11.5 7.33 13 6.5 13M9.5 9C8.67 9 8 8.33 8 7.5S8.67 6 9.5 6 11 6.67 11 7.5 10.33 9 9.5 9M11.5 14C10.67 14 10 13.33 10 12.5S10.67 11 11.5 11 13 11.67 13 12.5 12.33 14 11.5 14M22.85 14.19L21.87 15.17L19.83 13.13L20.81 12.15C21 11.95 21.33 11.95 21.53 12.15L22.85 13.47C23.05 13.67 23.05 14 22.85 14.19M19.13 13.83L21.17 15.87L15.04 22H13V19.96L19.13 13.83Z" /></svg>
